X: 43612
T: Your Welcome Home
R: reel
M: 4/4
K: Edorian
A|Beef edBA|Beef gfed|Beef edBA|BdAF E3:|
E|F3 E DEFA|Bcde f3 d|BdAd DEFA|B2 AF E3:|

